X:5
T:
T:Variation III.
M:3/4
L:1/16
K:Bb bass
%1
F3E | DB,D FDF BFB dFF cFF | BdcBAG FBAGFE DFEDCB, |
w:l1p238
%2
A,FFFFF EFFFFF AFF cFF | BAB d_d=d f=e_e dcB AGF F=E_E | DB,D FDF BDF BFB dFF cFF |
w:l2p238
%3
BdcBAG FBAGFE DFEDCB, | A,FF FFF EFF FFF AFF cFF | BFF dFF B2 z2 ||
w:l3p238
%4
d3c | ccc cf =eee e>G B4 | AAA Af ccc c>F A4 | ddd dG BBB B=E GGG GC |
w:l4p238
%5
F_G=G _A=AB =Bc_d =de=e f3d | ccc cf =eee e>G B4 | AAA Af ccc c>F A4 |
w:l5p238
%6
ddd dG BBB B=E GGG "rall."Gc | F8 "tempo I"F3E || DB,D FDF BDF BFB dFF cFF |
w:l6p238
%7
BdcBAG FBAGFE DFEDCB, | A,FFFFF EFFFFF AFF cFF |
w:l7p238
%8
BAB d_d=d f=e_e dcB AGF F=E_E | DB,D FDF BDF BFB dFF cFF |
w:l8p238
%9
Bdc BAG FBA GFE DFE DCB, | A,FFFFF EFFFFF AFF cFF | BFF dFF B2 z2 |]
w:l9p238

